source/assets/images/icons/vk.svg

<svg fill="none" height="50" viewBox="0 0 50 50" width="50" xmlns="http://www.w3.org/2000/svg" xmlns:xlink="http://www.w3.org/1999/xlink"><clipPath id="a"><path d="m0 0h50v50h-50z"/></clipPath><g clip-path="url(#a)"><path d="m25.3021 40.625c7.2333 0 4.6541-4.5792 5.2125-5.8958-.0083-.9834-.0167-1.9292.0166-2.5042.4584.1292 1.5396.6771 3.773 2.8479 3.4479 3.4792 4.3291 5.5521 7.1146 5.5521h5.127c1.625 0 2.4709-.6729 2.8938-1.2375.4083-.5458.8083-1.5042.3708-2.9958-1.1437-3.5917-7.8146-9.7938-8.2292-10.4479.0625-.1209.1625-.2813.2146-.3646h-.0041c1.3166-1.7396 6.3416-9.2688 7.0812-12.2813.0021-.0042.0042-.0104.0042-.0167.4-1.375.0333-2.2666-.3459-2.7708-.5708-.75415-1.4791-1.1354-2.7062-1.1354h-5.1271c-1.7167 0-3.0187.8646-3.6771 2.4417-1.102 2.802-4.1979 8.5645-6.5187 10.6041-.0709-2.8896-.0229-5.0958.0146-6.7354.075-3.1979.3166-6.3104-3.0021-6.3104h-8.0584c-2.0791 0-4.0687 2.2708-1.9145 4.9667 1.8833 2.3625.677 3.6791 1.0833 10.2333-1.5833-1.6979-4.4-6.2833-6.3917-12.1438-.5583-1.5854-1.4041-3.05412-3.78538-3.05412h-5.12709c-2.07916 0-3.32083 1.13332-3.32083 3.03122 0 4.2625 9.43542 28.2167 25.3021 28.2167zm-16.85418-28.1229c.45208 0 .49791 0 .83333.9521 2.03955 6.0062 6.61455 14.8937 9.95625 14.8937 2.5104 0 2.5104-2.5729 2.5104-3.5417l-.0021-7.7125c-.1375-2.552-1.0666-3.8229-1.677-4.5937l7.3083.0083c.0041.0355-.0417 8.5313.0208 10.5896 0 2.9229 2.3208 4.5979 5.9438.9313 3.8229-4.3146 6.4666-10.7646 6.5729-11.0271.1562-.375.2916-.5021.7833-.5021h5.1271.0208c-.002.0062-.0021.0125-.0041.0187-.4688 2.1875-5.0959 9.1584-6.6438 11.323-.025.0333-.0479.0687-.0708.1041-.6813 1.1125-1.2354 2.3417.0937 4.0709h.0021c.1208.1458.4354.4875.8938.9625 1.425 1.4708 6.3125 6.5 6.7458 8.5-.2875.0458-.6.0125-5.4437.0229-1.0313 0-1.8376-1.5417-4.9146-4.6459-2.7667-2.6916-4.5625-3.7916-6.198-3.7916-3.175 0-2.9437 2.5771-2.9145 5.6937.0104 3.3792-.0104 2.3105.0125 2.5229-.1854.073-.7167.2188-2.1021.2188-13.2188 0-21.8271-20.9812-22.15835-24.9917.11458-.0104 1.69167-.0041 5.30417-.0062z" fill="#000"/></g></svg>

<svg width="50" height="50" viewBox="0 0 50 50" fill="none" xmlns="http://www.w3.org/2000/svg">
<g clip-path="url(#clip0)">
<path d="M25.3021 40.625C32.5354 40.625 29.9562 36.0458 30.5146 34.7292C30.5063 33.7458 30.4979 32.8 30.5312 32.225C30.9896 32.3542 32.0708 32.9021 34.3042 35.0729C37.7521 38.5521 38.6333 40.625 41.4188 40.625H46.5458C48.1708 40.625 49.0167 39.9521 49.4396 39.3875C49.8479 38.8417 50.2479 37.8833 49.8104 36.3917C48.6667 32.8 41.9958 26.5979 41.5812 25.9438C41.6437 25.8229 41.7437 25.6625 41.7958 25.5792H41.7917C43.1083 23.8396 48.1333 16.3104 48.8729 13.2979C48.875 13.2937 48.8771 13.2875 48.8771 13.2812C49.2771 11.9062 48.9104 11.0146 48.5312 10.5104C47.9604 9.75625 47.0521 9.375 45.825 9.375H40.6979C38.9812 9.375 37.6792 10.2396 37.0208 11.8167C35.9188 14.6187 32.8229 20.3812 30.5021 22.4208C30.4312 19.5312 30.4792 17.325 30.5167 15.6854C30.5917 12.4875 30.8333 9.375 27.5146 9.375H19.4562C17.3771 9.375 15.3875 11.6458 17.5417 14.3417C19.425 16.7042 18.2187 18.0208 18.625 24.575C17.0417 22.8771 14.225 18.2917 12.2333 12.4312C11.675 10.8458 10.8292 9.37708 8.44792 9.37708H3.32083C1.24167 9.37708 0 10.5104 0 12.4083C0 16.6708 9.43542 40.625 25.3021 40.625ZM8.44792 12.5021C8.9 12.5021 8.94583 12.5021 9.28125 13.4542C11.3208 19.4604 15.8958 28.3479 19.2375 28.3479C21.7479 28.3479 21.7479 25.775 21.7479 24.8062L21.7458 17.0937C21.6083 14.5417 20.6792 13.2708 20.0688 12.5L27.3771 12.5083C27.3812 12.5438 27.3354 21.0396 27.3979 23.0979C27.3979 26.0208 29.7187 27.6958 33.3417 24.0292C37.1646 19.7146 39.8083 13.2646 39.9146 13.0021C40.0708 12.6271 40.2062 12.5 40.6979 12.5H45.825H45.8458C45.8438 12.5062 45.8437 12.5125 45.8417 12.5187C45.3729 14.7062 40.7458 21.6771 39.1979 23.8417C39.1729 23.875 39.15 23.9104 39.1271 23.9458C38.4458 25.0583 37.8917 26.2875 39.2208 28.0167H39.2229C39.3437 28.1625 39.6583 28.5042 40.1167 28.9792C41.5417 30.45 46.4292 35.4792 46.8625 37.4792C46.575 37.525 46.2625 37.4917 41.4188 37.5021C40.3875 37.5021 39.5812 35.9604 36.5042 32.8562C33.7375 30.1646 31.9417 29.0646 30.3062 29.0646C27.1312 29.0646 27.3625 31.6417 27.3917 34.7583C27.4021 38.1375 27.3813 37.0688 27.4042 37.2812C27.2188 37.3542 26.6875 37.5 25.3021 37.5C12.0833 37.5 3.475 16.5188 3.14375 12.5083C3.25833 12.4979 4.83542 12.5042 8.44792 12.5021Z" fill="black"/>
</g>
<defs>
<clipPath id="clip0">
<rect width="50" height="50" fill="white"/>
</clipPath>
</defs>
</svg>
